pix_core/i/groupv.svg

<svg fill="none" height="16" preserveAspectRatio="xMinYMid meet" viewBox="0 0 20 16" width="20" xmlns="http://www.w3.org/2000/svg"><path d="m4.5 0c.875 0 1.6875.5 2.15625 1.25.4375.78125.4375 1.75 0 2.5-.46875.78125-1.28125 1.25-2.15625 1.25-.90625 0-1.71875-.46875-2.1875-1.25-.4375-.75-.4375-1.71875 0-2.5.46875-.75 1.28125-1.25 2.1875-1.25zm11.5 0c.875 0 1.6875.5 2.1562 1.25.4376.78125.4376 1.75 0 2.5-.4687.78125-1.2812 1.25-2.1562 1.25-.9062 0-1.7188-.46875-2.1875-1.25-.4375-.75-.4375-1.71875 0-2.5.4687-.75 1.2813-1.25 2.1875-1.25zm-16 9.34375c0-1.84375 1.46875-3.34375 3.3125-3.34375h1.34375c.5 0 .96875.125 1.40625.3125-.0625.21875-.0625.46875-.0625.6875 0 1.21875.5 2.28125 1.34375 3 0 0 0 0-.03125 0h-6.65625c-.375 0-.65625-.28125-.65625-.65625zm12.6562.65625h-.0312c.8438-.71875 1.3438-1.78125 1.3438-3 0-.21875 0-.46875-.0313-.6875.4063-.1875.875-.3125 1.375-.3125h1.3437c1.8438 0 3.3438 1.5 3.3438 3.34375 0 .375-.3125.65625-.6875.65625zm-5.6562-3c0-1.0625.5625-2.03125 1.5-2.59375.90625-.53125 2.0625-.53125 3 0 .9062.5625 1.5 1.53125 1.5 2.59375 0 1.09375-.5938 2.0625-1.5 2.625-.9375.5312-2.09375.5312-3 0-.9375-.5625-1.5-1.53125-1.5-2.625zm-3 8.1875c0-2.3125 1.84375-4.1875 4.15625-4.1875h3.65625c2.3125 0 4.1875 1.875 4.1875 4.1875 0 .4375-.375.8125-.8438.8125h-10.3437c-.4375 0-.8125-.3438-.8125-.8125z" fill="#fff"/></svg>

<svg width="20" height="16" viewBox="0 0 20 16" fill="none" xmlns="http://www.w3.org/2000/svg" preserveAspectRatio="xMinYMid meet">
<path fill="#fff" d="M4.5 0C5.375 0 6.1875 0.5 6.65625 1.25C7.09375 2.03125 7.09375 3 6.65625 3.75C6.1875 4.53125 5.375 5 4.5 5C3.59375 5 2.78125 4.53125 2.3125 3.75C1.875 3 1.875 2.03125 2.3125 1.25C2.78125 0.5 3.59375 0 4.5 0ZM16 0C16.875 0 17.6875 0.5 18.1562 1.25C18.5938 2.03125 18.5938 3 18.1562 3.75C17.6875 4.53125 16.875 5 16 5C15.0938 5 14.2812 4.53125 13.8125 3.75C13.375 3 13.375 2.03125 13.8125 1.25C14.2812 0.5 15.0938 0 16 0ZM0 9.34375C0 7.5 1.46875 6 3.3125 6H4.65625C5.15625 6 5.625 6.125 6.0625 6.3125C6 6.53125 6 6.78125 6 7C6 8.21875 6.5 9.28125 7.34375 10C7.34375 10 7.34375 10 7.3125 10H0.65625C0.28125 10 0 9.71875 0 9.34375ZM12.6562 10H12.625C13.4688 9.28125 13.9688 8.21875 13.9688 7C13.9688 6.78125 13.9688 6.53125 13.9375 6.3125C14.3438 6.125 14.8125 6 15.3125 6H16.6562C18.5 6 20 7.5 20 9.34375C20 9.71875 19.6875 10 19.3125 10H12.6562ZM7 7C7 5.9375 7.5625 4.96875 8.5 4.40625C9.40625 3.875 10.5625 3.875 11.5 4.40625C12.4062 4.96875 13 5.9375 13 7C13 8.09375 12.4062 9.0625 11.5 9.625C10.5625 10.1562 9.40625 10.1562 8.5 9.625C7.5625 9.0625 7 8.09375 7 7ZM4 15.1875C4 12.875 5.84375 11 8.15625 11H11.8125C14.125 11 16 12.875 16 15.1875C16 15.625 15.625 16 15.1562 16H4.8125C4.375 16 4 15.6562 4 15.1875Z" />
</svg>
